24x24/apps/gnome-latex.svg

<svg height="24" width="24" xmlns="http://www.w3.org/2000/svg"><rect height="20" opacity=".2" rx="1.454" ry="1.482" transform="scale(-1)" width="16" x="-20" y="-22.5"/><rect fill="#f4f4f7" height="20" rx="1.454" ry="1.482" transform="scale(-1)" width="16" x="-20" y="-22"/><path d="m5.454 2c-.806 0-1.454.66-1.454 1.481v.5c0-.82.648-1.481 1.454-1.481h13.092c.806 0 1.454.66 1.454 1.481v-.5c0-.82-.648-1.481-1.454-1.481z" fill="#f4f4f7" opacity=".2"/><path d="m18.363 4.5-12.363 12.363v3.637h3.637l12.363-12.363-1.08-1.062-1.495-1.495zm-12.332 2v.295l1.856 2.297-1.887 2.132v.276h3.925l.075-1.395h-.262l-.225.702c-.088.017-.326.032-.714.045-.386.01-.717.014-.991.014h-1.035l1.748-1.965v-.19l-1.534-1.875h1.055c.513 0 .717.017 1.013.052l.167.81h.261v-1.198z" opacity=".1"/><path d="m5.5 4a.5.5 0 1 0 0 1 .5.5 0 0 0 0-1zm2 0a.5.5 0 1 0 0 1 .5.5 0 0 0 0-1zm2 0a.5.5 0 1 0 0 1 .5.5 0 0 0 0-1zm2 0a.5.5 0 1 0 0 1 .5.5 0 0 0 0-1zm2 0a.5.5 0 1 0 0 1 .5.5 0 0 0 0-1zm2 0a.5.5 0 1 0 0 1 .5.5 0 0 0 0-1zm2 0a.5.5 0 1 0 0 1 .5.5 0 0 0 0-1z" opacity=".2"/><path d="m17.6 18.5c-.887 0-1.6.713-1.6 1.6v1.943c0 .16.03.311.073.457l3.927-3.927a1.592 1.592 0 0 0 -.457-.073z" opacity=".2"/><path d="m17.6 18c-.887 0-1.6.713-1.6 1.6v1.943c0 .16.03.311.073.457l3.927-3.927a1.592 1.592 0 0 0 -.457-.073z" fill="#f4f4f7"/><path d="m6 20v-3.636l3.636 3.636z" fill="#e8ddc7"/><path d="m6 20v-1.455l1.455 1.455z" fill="#535353"/><path d="m9.273 19.636-2.91-2.909 12.356-12.354 2.909 2.91z" fill="#2bbd6d"/><path d="m7.07 17.434-1.07-1.07 12.364-12.364 1.06 1.08z" fill="#71ec8c"/><path d="m8.566 18.93 1.07 1.07 12.364-12.364-1.08-1.06z" fill="#26a269"/><path d="m8.52 8.211v.19l-1.747 1.965h1.035c.275 0 .605-.005.99-.015.39-.012.627-.027.714-.045l.226-.7h.262l-.075 1.394h-3.925v-.276l1.886-2.133-1.854-2.296v-.295h3.451v1.197h-.262l-.166-.81a7.297 7.297 0 0 0 -1.013-.051h-1.055z" fill="#4f4f4f"/></svg>

<svg height="24" width="24" xmlns="http://www.w3.org/2000/svg">
    <rect height="20" opacity=".2" rx="1.454" ry="1.482" transform="scale(-1)" width="16" x="-20" y="-22.5"/>
    <rect fill="#f4f4f7" height="20" rx="1.454" ry="1.482" transform="scale(-1)" width="16" x="-20" y="-22"/>
    <path d="M5.454 2C4.648 2 4 2.66 4 3.481v.5c0-.82.648-1.481 1.454-1.481h13.092c.806 0 1.454.66 1.454 1.481v-.5C20 2.661 19.352 2 18.546 2z" fill="#f4f4f7" opacity=".2"/>
    <path d="M18.363 4.5 6 16.863V20.5h3.637L22 8.137l-1.08-1.062-1.495-1.495zm-12.332 2v.295l1.856 2.297L6 11.224v.276h3.925L10 10.105h-.262l-.225.702a6.734 6.734 0 0 1-.714.045c-.386.01-.717.014-.991.014H6.773l1.748-1.965v-.19L6.987 6.836h1.055c.513 0 .717.017 1.013.052l.167.81h.261V6.5z" opacity=".1"/>
    <path d="M5.5 4a.5.5 0 1 0 0 1 .5.5 0 0 0 0-1zm2 0a.5.5 0 1 0 0 1 .5.5 0 0 0 0-1zm2 0a.5.5 0 1 0 0 1 .5.5 0 0 0 0-1zm2 0a.5.5 0 1 0 0 1 .5.5 0 0 0 0-1zm2 0a.5.5 0 1 0 0 1 .5.5 0 0 0 0-1zm2 0a.5.5 0 1 0 0 1 .5.5 0 0 0 0-1zm2 0a.5.5 0 1 0 0 1 .5.5 0 0 0 0-1zM17.6 18.5c-.887 0-1.6.713-1.6 1.6v1.943c0 .16.03.311.073.457L20 18.573a1.592 1.592 0 0 0-.457-.073z" opacity=".2"/>
    <path d="M17.6 18c-.887 0-1.6.713-1.6 1.6v1.943c0 .16.03.311.073.457L20 18.073a1.592 1.592 0 0 0-.457-.073z" fill="#f4f4f7"/>
    <path d="M6 20v-3.636L9.636 20z" fill="#e8ddc7"/>
    <path d="M6 20v-1.455L7.455 20z" fill="#535353"/>
    <path d="m9.273 19.636-2.91-2.909L18.719 4.373l2.909 2.91z" fill="#2bbd6d"/>
    <path d="M7.07 17.434 6 16.364 18.364 4l1.06 1.08z" fill="#71ec8c"/>
    <path d="M8.566 18.93 9.636 20 22 7.636l-1.08-1.06z" fill="#26a269"/>
    <path d="M8.52 8.211v.19l-1.747 1.965h1.035c.275 0 .605-.005.99-.015.39-.012.627-.027.714-.045l.226-.7H10L9.925 11H6v-.276l1.886-2.133-1.854-2.296V6h3.451v1.197h-.262l-.166-.81a7.297 7.297 0 0 0-1.013-.051H6.987z" fill="#4f4f4f"/>
</svg>
